!!!COM: Clara Schumann
!!!CNT: Deutsch
!!!TXO: Deutsch
!!!OTL: Liebst du um Scho2nheit
!!!LYR: Ru2ckert
!!!OPR: Liebesfru2hling
!!!OPS: Op. 12
!!!ONM: No. 4
!!!ENC: Ben Fuhrman
!!!YOR: Frauen komponieren: 25 Lieder fu2r Singstimme und Klavier
!!!YOR: Mainz, B. Schott's So2hne, 1992.
!!!ODT: 1841
!!NB: Only vocal melody encoded.
!!NB: First instance of melodic material only encoded.
!!created: 2/16/10 2:25PM
!!proofed and posted: 2/16/10 2:30PM
**kern	**silbe
*clef G2	*
*k[b-e-a-d-g-]	*
*M4/4	*
*MM[Nicht zu langsam]	*
=3	=3
{2a-	{Liebst
4a-	du
4a-	um
=4	=4
4dd-	Scho2n-
4a-}	-heit,}
2r	.
=5	=5
4r	.
{4dd-	{o
4.cc	nicht
8b-	mich
=6	=6
2b-	lie-
2a-}	-be!}
=7	=7
{2b-	{Lie-
4b-	-be
4b-	die
=8	=8
2a-	Son-
4a-	-ne,
4a-	sie
=9	=9
4.g-	tra2gt
8g-	ein
4f	gold-
4f	-nes
=10	=10
[2f	Haar!
8f]}	|}
8r	.
4r	.
=11	=11
4r	.
{4a-	{Liebst
4a-	du
4a-	um
=12	=12
4dd-	Ju-
4a-}	-gend,}
2r	.
=13	=13
4r	.
{4dd-	{o
(8dd-	nicht
4cc)	|
8b-	mich
=14	=14
2b-	lie-
2a-}	-be!}
=15	=15
{4dd-	{Lie-
8dd-	-be
8dd-	den
4dd-	Fru2h-
4cc	-ling,
=16	=16
2r	.
4r	.
8r	.
8a-	der
=17	=17
4.g-	jung
8g-	ist
4.ee-	je-
8g-	-des
=18	=18
2f}	Jahr!}
2r	.
=19	=19
{2a-	{Liebst
4a-	du
4a-	um
=20	=20
4dd-	Scha2t-
4a-}	-ze,}
2r	.
=21	=21
4r	.
{4dd-	{o
(4dd-	nicht
8cc)	|
8b-	mich
=22	=22
2b-	lie-
2a-}	-be!}
=23	=23
{2b-	{lie-
4b-	-be
4b-	die
=24	=24
2a-	Meer
4a-	-frau,
4a-	sie
=25	=25
4.g-	hat
8g-	viel
4f	Per-
4f	-len
=26	=26
2f}	klar.}
2r	.
=27	=27
4r	.
{4a-	{Liebst
4a-	du
4a-	um
=28	=28
4dd-	Lie-
4a-}	-be,}
2r	.
=29	=29
4r	.
{4dd-	{o
(8dd-	ja
4cc)	|
8b-	mich
=30	=30
2b-	lie-
2a-}	-be!}
=31	=31
8r	.
{8dd-	{Liebst
8dd-	du
8dd-	um
4dd-	Lie-
4cc	-de,
=32	=32
8r	.
8b-	o
8b-	ja
8b-	mich
4b-	lie-
4a-	-be.
=33	=33
4g-	lie-
8g-	-be
8g-	mich
4g-	im-
4f	-mer,
=34	=34
2dd-	dich
4dd-	lieb
4dd-	ich
=35	=35
[2dd-	im-
8dd-]	|
8cc	|
8b-	-mer-
8cc	|
=36	=36
[2dd-	-dar!
4dd-]}	|}
4r	.
==	==
*-	*-
